assets/images/trash_wordmark.svg

<svg width="343" height="80" viewBox="0 0 343 80" fill="none" xmlns="http://www.w3.org/2000/svg">
<path d="M65.8415 35.6434H41.138V79.2071H26.1312V35.6434H1.42773V23.5598H65.8415V35.6434Z" fill="white"/>
<path d="M132.015 77.7721V79.2006H117.002C115.889 77.3723 115.175 74.6725 115.175 71.3306V65.3674C115.175 61.5536 113.027 59.5615 108.267 59.5615H84.9978V79.194H70.541V23.5598H111.129C126.456 23.5598 131.779 31.2726 131.779 39.8569C131.779 47.5697 127.091 51.6194 121.454 52.9758V53.2969C128.047 54.0112 130.509 58.0675 130.509 63.0739V70.3083C130.502 73.4013 130.902 75.5506 132.015 77.7721ZM116.524 41.7638C116.524 37.1506 113.27 35.165 108.582 35.165H84.9912V48.1201H108.582C113.427 48.1201 116.524 46.1346 116.524 41.7638Z" fill="white"/>
<path d="M189.233 67.5954H157.622L151.9 79.2071H136.016L164.373 23.5598H182.404L210.84 79.2071H195.034L189.233 67.5954ZM183.746 56.7044L173.506 36.2004H173.185L163.017 56.711H183.746V56.7044Z" fill="white"/>
<path d="M239.224 34.4507C231.124 34.4507 225.088 35.9645 225.088 39.5358C225.088 42.9564 228.427 44.3849 242.484 45.2565C263.927 46.685 271.954 52.4909 271.954 63.2246C271.954 77.0578 255.592 80 240.5 80C223.903 80 209.046 74.5152 207.619 60.2889H222.947C224.295 66.6452 233.272 68.1589 241.371 68.1589C249.713 68.1589 256.542 66.9663 256.542 63.0739C256.542 59.496 253.923 58.0674 239.944 57.1107C220.963 55.8394 209.682 51.4686 209.682 40.4991C209.682 26.5086 224.852 22.7734 239.387 22.7734C255.114 22.7734 270.442 27.3867 271.954 42.0914H256.862C255.271 36.279 248.043 34.4507 239.224 34.4507Z" fill="white"/>
<path d="M342.437 23.5598V79.2071H327.581V56.9469H290.726V79.2071H275.791V23.5598H290.726V44.5488H327.581V23.5598H342.437Z" fill="white"/>
<path d="M1.55829 20.5499L0 7.84384L63.8375 0L65.3958 12.7061L1.55829 20.5499Z" fill="url(#paint0_linear)"/>
<defs>
<linearGradient id="paint0_linear" x1="63.5512" y1="6.44243" x2="2.06769" y2="14.0675" gradientUnits="userSpaceOnUse">
<stop stop-color="#BB68FD"/>
<stop offset="0.1099" stop-color="#9B85FF"/>
<stop offset="0.257" stop-color="#77CCE6"/>
<stop offset="0.3974" stop-color="#8EFFA7"/>
<stop offset="0.6231" stop-color="#F1FF6B"/>
<stop offset="0.8119" stop-color="#F0AF59"/>
<stop offset="1" stop-color="#FF6E97"/>
</linearGradient>
</defs>
</svg>

<svg width="343" height="80" fill="none" xmlns="http://www.w3.org/2000/svg"><path d="M65.841 35.643H41.138v43.564H26.131V35.643H1.428V23.56H65.84v12.083zm66.174 42.13V79.2h-15.013c-1.113-1.829-1.827-4.528-1.827-7.87v-5.964c0-3.813-2.148-5.806-6.908-5.806h-23.27v19.633H70.542V23.56h40.588c15.327 0 20.65 7.713 20.65 16.297 0 7.713-4.688 11.762-10.325 13.119v.32c6.593.715 9.055 4.772 9.055 9.778v7.234c-.007 3.093.393 5.243 1.506 7.464zm-15.491-36.01c0-4.612-3.254-6.598-7.942-6.598h-23.59V48.12h23.59c4.845 0 7.942-1.985 7.942-6.356zm72.709 25.832h-31.611L151.9 79.207h-15.884l28.357-55.647h18.031l28.436 55.647h-15.806l-5.801-11.612zm-5.487-10.89L173.506 36.2h-.321l-10.168 20.511h20.729v-.007zm55.478-22.254c-8.1 0-14.136 1.514-14.136 5.085 0 3.42 3.339 4.849 17.396 5.72 21.443 1.429 29.47 7.235 29.47 17.969C271.954 77.058 255.592 80 240.5 80c-16.597 0-31.454-5.485-32.881-19.711h15.328c1.348 6.356 10.325 7.87 18.424 7.87 8.342 0 15.171-1.193 15.171-5.085 0-3.578-2.619-5.007-16.598-5.963-18.981-1.272-30.262-5.642-30.262-16.612 0-13.99 15.17-17.726 29.705-17.726 15.727 0 31.055 4.614 32.567 19.318h-15.092c-1.591-5.812-8.819-7.64-17.638-7.64zM342.437 23.56v55.647h-14.856v-22.26h-36.855v22.26h-14.935V23.56h14.935v20.989h36.855v-20.99h14.856z" fill="#fff"/><path d="M1.558 20.55L0 7.844 63.837 0l1.559 12.706L1.558 20.55z" fill="url(#paint0_linear)"/><defs><linearGradient id="paint0_linear" x1="63.551" y1="6.442" x2="2.068" y2="14.068" gradientUnits="userSpaceOnUse"><stop stop-color="#BB68FD"/><stop offset=".11" stop-color="#9B85FF"/><stop offset=".257" stop-color="#77CCE6"/><stop offset=".397" stop-color="#8EFFA7"/><stop offset=".623" stop-color="#F1FF6B"/><stop offset=".812" stop-color="#F0AF59"/><stop offset="1" stop-color="#FF6E97"/></linearGradient></defs></svg>
